assets/components_previews/typography/light/link.svg

<svg xmlns="http://www.w3.org/2000/svg" width="320" height="232" fill="none" viewBox="0 0 320 232"><g filter="url(#a)"><rect width="160" height="62" x="80" y="85" fill="#fff" rx="12"/><path fill="#AA99EC" fill-rule="evenodd" d="M118.809 115.191a4.07 4.07 0 0 0-5.631-.116 1 1 0 1 1-1.356-1.47 6.067 6.067 0 0 1 8.401 8.752l-2.866 2.866a6.068 6.068 0 0 1-8.58-8.58l.464-.464a1 1 0 1 1 1.415 1.414l-.465.464a4.068 4.068 0 0 0 5.752 5.752l2.866-2.866a4.07 4.07 0 0 0 0-5.752" clip-rule="evenodd"/><path fill="#AA99EC" fill-rule="evenodd" d="M119.809 108.191a4.07 4.07 0 0 0-5.752 0l-2.866 2.866a4.068 4.068 0 0 0 5.631 5.868 1 1 0 1 1 1.356 1.47 6.067 6.067 0 0 1-8.401-8.752l2.866-2.866a6.068 6.068 0 0 1 8.58 8.58l-.464.464a.999.999 0 1 1-1.414-1.414l.464-.464a4.07 4.07 0 0 0 0-5.752" clip-rule="evenodd"/><rect width="74" height="10" x="142" y="111" fill="#EBE4FF" rx="5"/></g><defs><filter id="a" width="200" height="102" x="60" y="77" color-interpolation-filters="sRGB" filterUnits="userSpaceOnUse"><feFlood flood-opacity="0" result="BackgroundImageFix"/><feColorMatrix in="SourceAlpha" result="hardAlpha" values="0 0 0 0 0 0 0 0 0 0 0 0 0 0 0 0 0 0 127 0"/><feOffset dy="12"/><feGaussianBlur stdDeviation="10"/><feComposite in2="hardAlpha" operator="out"/><feColorMatrix values="0 0 0 0 0 0 0 0 0 0 0 0 0 0 0 0 0 0 0.03 0"/><feBlend in2="BackgroundImageFix" result="effect1_dropShadow_10186_37150"/><feColorMatrix in="SourceAlpha" result="hardAlpha" values="0 0 0 0 0 0 0 0 0 0 0 0 0 0 0 0 0 0 127 0"/><feOffset dy="2"/><feGaussianBlur stdDeviation="3"/><feComposite in2="hardAlpha" operator="out"/><feColorMatrix values="0 0 0 0 0 0 0 0 0 0 0 0 0 0 0 0 0 0 0.05 0"/><feBlend in2="effect1_dropShadow_10186_37150" result="effect2_dropShadow_10186_37150"/><feBlend in="SourceGraphic" in2="effect2_dropShadow_10186_37150" result="shape"/></filter></defs></svg>

<svg width="320" height="232" viewBox="0 0 320 232" fill="none" xmlns="http://www.w3.org/2000/svg">
<g filter="url(#filter0_dd_10186_37150)">
<rect x="80" y="85" width="160" height="62" rx="12" fill="white"/>
<path fill-rule="evenodd" clip-rule="evenodd" d="M118.809 115.191C117.26 113.643 114.773 113.604 113.178 115.075C112.772 115.45 112.139 115.424 111.765 115.018C111.391 114.612 111.416 113.98 111.822 113.605C114.202 111.409 117.913 111.466 120.223 113.777C122.592 116.146 122.592 119.988 120.223 122.357L117.357 125.223C114.988 127.592 111.146 127.592 108.777 125.223C106.408 122.854 106.408 119.013 108.777 116.643L109.241 116.179C109.632 115.788 110.265 115.788 110.656 116.179C111.046 116.569 111.046 117.203 110.656 117.593L110.191 118.057C108.603 119.646 108.603 122.221 110.191 123.809C111.779 125.397 114.354 125.397 115.943 123.809L118.809 120.943C120.397 119.354 120.397 116.779 118.809 115.191Z" fill="#AA99EC"/>
<path fill-rule="evenodd" clip-rule="evenodd" d="M119.809 108.191C118.221 106.603 115.646 106.603 114.057 108.191L111.191 111.057C109.603 112.646 109.603 115.221 111.191 116.809C112.74 118.357 115.227 118.396 116.822 116.925C117.228 116.55 117.861 116.576 118.235 116.982C118.61 117.388 118.584 118.02 118.178 118.395C115.798 120.591 112.088 120.534 109.777 118.223C107.408 115.854 107.408 112.012 109.777 109.643L112.643 106.777C115.013 104.408 118.854 104.408 121.223 106.777C123.592 109.146 123.592 112.988 121.223 115.357L120.759 115.821C120.368 116.212 119.735 116.212 119.345 115.821C118.954 115.431 118.954 114.798 119.345 114.407L119.809 113.943C121.397 112.354 121.397 109.779 119.809 108.191Z" fill="#AA99EC"/>
<rect x="142" y="111" width="74" height="10" rx="5" fill="#EBE4FF"/>
</g>
<defs>
<filter id="filter0_dd_10186_37150" x="60" y="77" width="200" height="102" filterUnits="userSpaceOnUse" color-interpolation-filters="sRGB">
<feFlood flood-opacity="0" result="BackgroundImageFix"/>
<feColorMatrix in="SourceAlpha" type="matrix" values="0 0 0 0 0 0 0 0 0 0 0 0 0 0 0 0 0 0 127 0" result="hardAlpha"/>
<feOffset dy="12"/>
<feGaussianBlur stdDeviation="10"/>
<feComposite in2="hardAlpha" operator="out"/>
<feColorMatrix type="matrix" values="0 0 0 0 0 0 0 0 0 0 0 0 0 0 0 0 0 0 0.03 0"/>
<feBlend mode="normal" in2="BackgroundImageFix" result="effect1_dropShadow_10186_37150"/>
<feColorMatrix in="SourceAlpha" type="matrix" values="0 0 0 0 0 0 0 0 0 0 0 0 0 0 0 0 0 0 127 0" result="hardAlpha"/>
<feOffset dy="2"/>
<feGaussianBlur stdDeviation="3"/>
<feComposite in2="hardAlpha" operator="out"/>
<feColorMatrix type="matrix" values="0 0 0 0 0 0 0 0 0 0 0 0 0 0 0 0 0 0 0.05 0"/>
<feBlend mode="normal" in2="effect1_dropShadow_10186_37150" result="effect2_dropShadow_10186_37150"/>
<feBlend mode="normal" in="SourceGraphic" in2="effect2_dropShadow_10186_37150" result="shape"/>
</filter>
</defs>
</svg>
